assets/symbols/mulberry/lift.svg

<svg height="850.394" viewBox="0 0 850.394 850.394" width="850.394" xmlns="http://www.w3.org/2000/svg"><path d="m240.31 106.68v671.11l-27.73-1.17-6.56-15.57v-685.21h534.97l-2.97 700.45-30.95 1.5v-671.11h-235.19zm-78.39 331.6v67.62h-69.24v-67.62h3.78z" fill="#f6cc4b"/><path d="m161.92 371.74v66.54h-69.24v-66.54z" fill="#f6cc4b"/><path d="m471.88 770.96v.27h-231.57v-664.55h231.57zm235.19-664.28v664.55h-235.19v-664.55z" fill="#c8c8c8"/><g fill="none"><g stroke="#231f20"><path d="m198 776 14.58.62 27.73 1.17v-671.11h466.76v671.11l30.95-1.5 5.98-.29" stroke-width="14"/><path d="m237.78 771.23h468.88" stroke-width="25.965"/><path d="m206.02 773.26v-697.42h534.97l-2.97 700.45-.02 3.71" stroke-width="21"/><path d="m471.88 106.68v664.28m-309.96-332.68v67.62h-69.24v-134.16h69.24z" stroke-width="14"/><path d="m127.02 448.6v44.31m12.97-14.48-13.01 14.77-13.01-14.8m13.32-48.77v-44.31m-12.96 14.49 13.01-14.77 13.01 14.79" stroke-width="6.491"/><path d="m96.46 438.28h65.46" stroke-width="14"/></g><path d="m0 0h850.394v850.394h-850.394z"/></g></svg>

<svg xmlns="http://www.w3.org/2000/svg" width="850.394" height="850.394" viewBox="0 0 850.394 850.394" overflow="visible"><path fill="#f6cc4b" d="M240.31 106.68V777.79l-27.73-1.17-6.56-15.57V75.84h534.97l-2.97 700.45-30.95 1.5V106.68H471.88zM161.92 438.28v67.62H92.68v-67.62h3.78z"/><path fill="#f6cc4b" d="M161.92 371.74v66.54H92.68v-66.54z"/><path fill="#c8c8c8" d="M471.88 770.96v.27H240.31V106.68h231.57zM707.07 106.68v664.55H471.88V106.68z"/><g fill="none" stroke="#231f20"><path stroke-width="14" d="M198 776l14.58.62 27.73 1.17V106.68h466.76V777.79l30.95-1.5L744 776"/><path stroke-width="25.965" d="M237.78 771.23h468.88"/><path stroke-width="21" d="M206.02 773.26V75.84h534.97l-2.97 700.45L738 780"/><path stroke-width="14" d="M471.88 106.68v664.28M161.92 438.28v67.62H92.68V371.74h69.24z"/><path stroke-width="6.491" d="M127.02 448.6v44.31M139.99 478.43l-13.01 14.77-13.01-14.8M127.29 429.63v-44.31M114.33 399.81l13.01-14.77 13.01 14.79"/><path stroke-width="14" d="M96.46 438.28h65.46"/></g><path fill="none" d="M0 0h850.394v850.394H0z"/></svg>
